!!!COM: Haydn, Franz Joseph
!!!OTL: String Quartet in G major
!!!OPS: Opus 1
!!!ONM: No. 4
!!!OMD: Presto
!!!OMV: 5
!!!SCT: H III:4
!!!SCA: Thematisch-bibliographisches Werkevererzeichnis (A. van Hoboken)
!!!YOR: Bremner Edition, 1772
!!!ENC: Frances Bennion
!!!CDT: 1732/3/31/-1809/5/31/
!!!CNT: Oesterreich
!!!YEC: Copyright (c) 1994, 2000 Center for Computer Assisted Research in the Humanities
!!!YEM: Rights to all derivative editions reserved.
!!!YEM: Refer to licensing agreement for further details.
!!!YEN: United States of America
**kern	**kern	**kern	**kern
*k[f#]	*k[f#]	*k[f#]	*k[f#]
*G:	*G:	*G:	*G:
*clefF4	*clefC3	*clefF	*clefF
*M2/4	*M2/4	*M2/4	*M2/4
4G	4g	4G 4gg 4b 4d	4b 4gg 4G 4d
4r	4r	4r	16g
.	.	.	16f#
.	.	.	16g
.	.	.	16a
=2	=2	=2	=2
8r	8r	8r	8g
8B	8b	8d	8g
8c	8cc	8e	8g
8B	8b	8d	8g
=3	=3	=3	=3
8A	8a	8f#	8cc
8G	8g	8g	8b
4r	4r	8cc	8ee
.	.	8b	8dd
=4	=4	=4	=4
8D	8d	8a	8cc
8G	8g	8g	8b
4r	4r	4r	4r
=5	=5	=5	=5
4G	4g	4G 4b 4d	4G 4gg 4d 4b
4r	4r	4r	16g
.	.	.	16f#
.	.	.	16g
.	.	.	16a
=6	=6	=6	=6
8r	8r	8r	8g
8B	8b	8d	8g
8c	8cc	8e	8g
8B	8b	8d	8g
=7	=7	=7	=7
8A	8a	8f#	8cc
8G	8g	8g	8b
4r	4r	8cc	8ee
.	.	8b	8dd
=8	=8	=8	=8
8D	8cc	8a	8ff#
8G	8b	8g	8gg
4r	4r	4r	8r
.	.	.	16bb
.	.	.	16cc#
=9	=9	=9	=9
8r	8r	8r	4cc#
8G	8A	8e	.
8F#	8A	8f#	8dd
8r	8r	8r	16ee
.	.	.	16g
=10	=10	=10	=10
8r	8r	8r	4g
8C#	8A	8e	.
8D	8A	8d	8f#
8r	8r	8r	16bb
.	.	.	16cc#
=11	=11	=11	=11
8r	8r	8r	4cc#
8G	8A	8e	.
8F#	8A	8f#	8dd
8r	8r	8r	16ee
.	.	.	16g
=12	=12	=12	=12
8r	8r	8r	4g
8C#	8A	8e	.
8D	8A	8d	8f#
8F#	8f#	8a	8dd
=13	=13	=13	=13
8G	8g	8b	16dd
.	.	.	16ff#
8r	8r	8r	8ee
8A	8a	8cc#	16ee
.	.	.	16gg
8r	8r	8r	8ff#
=14	=14	=14	=14
8B	8b	8dd	16ff#
.	.	.	16aa
8r	8r	8r	8gg
8c#	8cc#	8ee	16gg
.	.	.	16bb
8r	8r	8r	16ee
.	.	.	16gg
=15	=15	=15	=15
4d	4a	4dd	8ff#
.	.	.	24ddd
.	.	.	24ccc#
.	.	.	24bb
4r	4r	4r	8aa
.	.	.	8aa
=16	=16	=16	=16
4c#	4a	4gg 4a	8aa
.	.	.	16eee
.	.	.	16ccc#
4r	4r	4r	16aa
.	.	.	16gg
.	.	.	16ee
.	.	.	16gg
=17	=17	=17	=17
4d	4a	4a 4d 4ff#	8ff#
.	.	.	24ddd
.	.	.	24ccc#
.	.	.	24bb
4r	4r	4r	8aa
.	.	.	8aa
=18	=18	=18	=18
4c#	4a	4gg 4a	8aa
.	.	.	16eee
.	.	.	16ccc#
4r	4r	4r	16aa
.	.	.	16gg
.	.	.	16ee
.	.	.	16gg
=19	=19	=19	=19
8d	8dd	8r	16ff#
.	.	.	16aa
8F#	8f#	4dd	16dd
.	.	.	16ee
8G	8g	.	4ee
8A	8a	8cc#	.
=20	=20	=20	=20
8D	8d	8dd	8dd
8F#	8f#	8f#	8f#
8G	8g	8g	8g
8A	8a	8a	8a
=21	=21	=21	=21
16B	16b	16b	16b
16A	16a	16a	16a
16B	16b	16b	16b
16c#	16cc#	16cc#	16cc#
8d	8dd	8dd	8dd
8F#	8f#	8f#	8f#
=22	=22	=22	=22
16G	16g	16g	16g
16F#	16f#	16f#	16f#
16G	16g	16g	16g
16A	16a	16a	16a
8B	8b	8b	8b
8E	8e	8e	8e
=23	=23	=23	=23
8F#	8f#	8f#	8f#
16E	16e	16e	16e
16D	16d	16d	16d
8A	8a	8a	8a
8A	8a	8a	8a
=24	=24	=24	=24
4D	4d	4d	4d
4r	4r	4r	4r
=25	=25	=25	=25
4D	4d	4d	[2dd
4r	16f#	16a	.
.	16e	16g	.
.	16f#	16a	.
.	16g	16b	.
=26	=26	=26	=26
2r	8a	8cc	2dd_
.	8a	8cc	.
.	8a	8cc	.
.	8a	8cc	.
=27	=27	=27	=27
4D	8f#	8a#	2dd_
.	8g	8b	.
4r	8r	8r	.
.	8a	8cc	.
=28	=28	=28	=28
4D	8f#	8a#	2dd_
.	8g	8b	.
4r	4r	4r	.
=29	=29	=29	=29
4D	4d	4d	2dd_
4r	16g	16b	.
.	16f#	16a	.
.	16g	16b	.
.	16a	16cc	.
=30	=30	=30	=30
2r	8b	8dd	2dd_
.	8b	8dd	.
.	8b	8dd	.
.	8b	8dd	.
=31	=31	=31	=31
4D	8g#	8b	2dd_
.	8a	8cc	.
4r	8r	8r	.
.	8b	8dd	.
=32	=32	=32	=32
4D	8g#	8b	4dd]
.	8a	8cc	.
4r	4r	4r	16dd
.	.	.	32ee
.	.	.	32ff#
.	.	.	32gg
.	.	.	32aa
.	.	.	32bb
.	.	.	32ccc
=33	=33	=33	=33
4D	4d	4d	[2ddd
4r	16f#	16a	.
.	16e	16g	.
.	16f#	16a	.
.	16g	16b	.
=34	=34	=34	=34
4D	8a	8cc	2ddd]
.	8a	8cc	.
4r	8a	8cc	.
.	8f#	8a	.
=35	=35	=35	=35
8G	8g	8b	16ddd
.	.	.	16ccc
8G	8g	8b	16bb
.	.	.	16ccc
8G	8g	8b	8bb
8G	8g	8b	8r
=36	=36	=36	=36
8G	8g	8b	16bb
.	.	.	16aa
8G	8g	8b	16gg
.	.	.	16aa
8G	8g	8b	8gg
8G	8g	8b	8r
=37	=37	=37	=37
8G	8g	8b	16gg
.	.	.	16ff
8G	8g	8b	16ee
.	.	.	16ff
8G	8g	8b	8ff
8G	8g	8b	8r
=38	=38	=38	=38
8G	8g	8b	4G
8G	8g	8b	.
8G	8g	8b	4ddd
8G	8g	8b	.
=39	=39	=39	=39
4G	4g	4b	16ddd
.	.	.	16bb
.	.	.	16fff
.	.	.	16ddd
8r	8r	8r	16fff
.	.	.	16ddd
8G	8g	8b	16bb
.	.	.	16ff
=40	=40	=40	=40
8c	8cc	8cc	8ee
8E	8e	8c	8ccc
8F	8f	8d	8d
8G	8g	8b	8b
=41	=41	=41	=41
8C	8c	4c	4c
8GG	8G	.	.
4CC	4C	4r	8r
.	.	.	16ccc
.	.	.	16gg#
=42	=42	=42	=42
8r	8b	8r	8gg#
8c	8cc	8e	8aa
8B	8r	8g#	8r
8A	8cc	8a	16ccc
.	.	.	16ee
=43	=43	=43	=43
8r	8cc	8r	8ee
8B	8b	8d	8dd
8A	4r	8c	8r
8G	.	8B	16bb
.	.	.	16ff#
=44	=44	=44	=44
8r	8a	8r	8ff#
8B	8b	8d	8gg
8A	8r	8f#	8r
8G	8b	8g	16bb
.	.	.	16dd
=45	=45	=45	=45
8r	8b	8r	8dd
8A	8a	8c	8cc
8G	8r	8B	8r
8F#	8d	8A	16aa
.	.	.	16cc
=46	=46	=46	=46
8.G	8.d	8.G	8.b
16d	16dd	16dd	16dd
16c	16cc	16cc	16cc
16B	16b	16b	16b
16A	16a	16a	16a
16G	16g	16g	16g
=47	=47	=47	=47
8.D	8.d	4d	4d
16E	16e	.	.
16D	16d	4r	4r
16C	16c	.	.
16BB	16B	.	.
16AA	16A	.	.
=48	=48	=48	=48
4GG	4G	4G 4b 4d	4G 4d 4gg 4b
4r	4r	4r	16g
.	.	.	16f#
.	.	.	16g
.	.	.	16a
=49	=49	=49	=49
8r	8r	8r	8g
8B	8b	8d	8g
8c	8cc	8e	8g
8B	8b	8d	8g
=50	=50	=50	=50
8A	8a	8f#	8cc
8G	8g	8g	8b
4r	4r	8cc	8ee
.	.	8b	8dd
=51	=51	=51	=51
8D	8d	8a	8cc
8G	8g	8g	8b
4r	4r	4r	4r
=52	=52	=52	=52
4G	4g	4G 4b 4d	4gg 4G 4d 4b
4r	4r	4r	16g
.	.	.	16f#
.	.	.	16g
.	.	.	16a
=53	=53	=53	=53
8r	8r	8r	8g
8B	8b	8d	8g
8c	8cc	8e	8g
8B	8b	8d	8g
=54	=54	=54	=54
8A	8a	8f#	8cc
8G	8g	8g	8b
4r	4r	8cc	8ee
.	.	8b	8dd
=55	=55	=55	=55
8D	8cc	8a	8ff#
8G	8b	8g	8gg
4r	4r	4r	8r
.	.	.	16ee
.	.	.	16f#
=56	=56	=56	=56
8r	8r	8r	4f#
8c	8d	8A	.
8B	8d	8B	8g
8r	8r	8r	16a
.	.	.	16c
=57	=57	=57	=57
8r	8r	8r	4c
8D	8d	8A	.
8G	8G	8G	8B
8r	8r	8r	16ee
.	.	.	16f#
=58	=58	=58	=58
8r	8r	8r	4f#
8c	8d	8A	.
8B	8d	8B	8g
8r	8r	8r	16a
.	.	.	16c
=59	=59	=59	=59
8r	8r	8r	4c
8D	8d	8A	.
8G	8G	8G	8B
8BB	8B	8d	8g
=60	=60	=60	=60
8C	8c	8e	16g
.	.	.	16b
8r	8r	8r	8.a
8D	8d	8f#	.
.	.	.	16cc
8r	8r	8r	8b
=61	=61	=61	=61
8E	8e	8g	16b
.	.	.	16dd
8r	8r	8r	8.cc
8F#	8f#	8a	.
.	.	.	16ee
8r	8r	8r	16a
.	.	.	16cc
=62	=62	=62	=62
4G	4d	4g	8b
.	.	.	24gg
.	.	.	24ff#
.	.	.	24ee
4r	4r	4r	8dd
.	.	.	8dd
=63	=63	=63	=63
4F#	4d	4cc	8dd
.	.	.	16aa
.	.	.	16ff#
4r	4r	4r	16dd
.	.	.	16cc
.	.	.	16a
.	.	.	16cc
=64	=64	=64	=64
4G	4d	4G 4d 4b	8b
.	.	.	24gg
.	.	.	24ff#
.	.	.	24ee
4r	4r	4r	8dd
.	.	.	8dd
=65	=65	=65	=65
4F#	4d	4d	8dd
.	.	.	16aa
.	.	.	16ff#
4r	4r	4r	16dd
.	.	.	16cc
.	.	.	16a
.	.	.	16cc
=66	=66	=66	=66
8G	8g	8r	16b
.	.	.	16dd
8BB	8B	4g	16g
.	.	.	16b
8C	8c	.	4a
8D	8d	8f#	.
=67	=67	=67	=67
8G	8g	8g	8g
8BB	8B	8B	8B
8C	8c	8c	8c
8D	8d	8d	8d
=68	=68	=68	=68
16E	16e	16e	16e
16D	16d	16d	16d
16E	16e	16e	16e
16F#	16f#	16f#	16f#
8G	8g	8g	8g
8BB	8B	8B	8B
=69	=69	=69	=69
16C	16c	16c	16c
16BB	16B	16B	16B
16C	16c	16c	16c
16D	16d	16d	16d
8E	8e	8e	8e
8AA	8A	8A	8A
=70	=70	=70	=70
8BB	8B	8B	8B
16AA	16A	16A	16A
16GG	16G	16G	16G
8D	8d	8d	8d
8D	8d	8d	8d
=71	=71	=71	=71
4GG	4G	4G	4G
4r	4r	4r	4r
=72	=72	=72	=72
2r	2r	8e	8r
.	.	8r	8bb
.	.	8f#	8r
.	.	8r	8dd#
=73	=73	=73	=73
2r	2r	8g	8r
.	.	8r	8ee
.	.	8e	8r
.	.	8r	8cc
=74	=74	=74	=74
2r	2r	4.d#	8r
.	.	.	8cc
.	.	.	8b
.	.	8d#	8a
=75	=75	=75	=75
2r	2r	16e	4g
.	.	16f#	.
.	.	16g	.
.	.	16a	.
.	.	8b	4f#
.	.	8a	.
=76	=76	=76	=76
2r	2r	8g	8r
.	.	8r	8ee
.	.	8e	8r
.	.	8r	8gg
=77	=77	=77	=77
2r	2r	8d#	8r
.	.	8r	8ff#
.	.	8B	8r
.	.	8r	8aa
=78	=78	=78	=78
2r	2r	8e	8gg
.	.	8g	8ee
.	.	8a	8ff#
.	.	8b	8dd#
=79	=79	=79	=79
2r	2r	8e	4ee
.	.	8g	.
.	.	16b	4r
.	.	16a	.
.	.	16g	.
.	.	16f#	.
=80	=80	=80	=80
4G	4g	4g	4G 4gg 4d 4b
8BB	4g	8B	8dd
8G	.	8g	8r
=81	=81	=81	=81
8C	4g	8c	8ee
8A	.	8a	8r
8D	8f#	8d	16ccc
.	.	.	16aa
8d	8a	8dd	8ff#
=82	=82	=82	=82
8B	4g	8b	4gg 4b 4d
8G	.	8g	.
8BB	4g	8B	8dd
8G	.	8g	8r
=83	=83	=83	=83
8C	4g	8c	8ee
8A	.	8a	8r
8D	8f#	8d	16ccc
.	.	.	16aa
8d	8a	8dd	8ff#
=84	=84	=84	=84
8B	8g	8b	8gg
8BB	8B	8b	8b
8C	8c	8cc	8cc
8D	8d	8dd	8dd
=85	=85	=85	=85
8GG	4G	4g	4g
8B	.	.	.
16d	4r	4r	4r
16c	.	.	.
16B	.	.	.
16A	.	.	.
=86	=86	=86	=86
4G#	8r	8r	4r
.	8b	8dd	.
4E	8r	8r	4gg#
.	8B	8d	.
=87	=87	=87	=87
4A	8A	8c	16aa
.	.	.	16gg#
.	8a	8A	16aa
.	.	.	16bb
8r	4r	4r	8ccc
16A	.	.	8r
16G	.	.	.
=88	=88	=88	=88
4F#	8r	8r	4r
.	8a	8cc	.
4D	8r	8r	4ff#
.	8A	8c	.
=89	=89	=89	=89
4G	8G	8B	16gg
.	.	.	16ff#
.	8g	8G	16gg
.	.	.	16aa
4GG	4G	8r	8bb
.	.	8b	[8bb
=90	=90	=90	=90
4AA	4A	8.cc	8bb]
.	.	.	16aa
.	.	16b	16gg
4AA#	4A#	8a	8ff#
.	.	8g	8ee
=91	=91	=91	=91
8BB	8B	8f#	8dd#
8B	8b	8B	8b
16B	16b	4r	4r
16A	16a	.	.
16G	16g	.	.
16F#	16f#	.	.
=92	=92	=92	=92
4E	4e	8e	8r
.	.	8r	8bb
4r	4r	8f#	8r
.	.	8r	8dd#
=93	=93	=93	=93
2r	2r	8g	8r
.	.	8r	8ee
.	.	8e	8r
.	.	8r	8cc
=94	=94	=94	=94
2r	2r	4.d#	8r
.	.	.	8cc
.	.	.	8b
.	.	8d#	8a
=95	=95	=95	=95
2r	2r	16e	4g
.	.	16f#	.
.	.	16g	.
.	.	16a	.
.	.	8b	4f#
.	.	8a	.
=96	=96	=96	=96
2r	2r	8g	8r
.	.	8r	8ee
.	.	8e	8r
.	.	8r	8gg
=97	=97	=97	=97
2r	2r	8d#	8r
.	.	8r	8ff#
.	.	8B	8r
.	.	8r	8aa
=98	=98	=98	=98
2r	2r	8e	8gg
.	.	8g	8ee
.	.	8a	8ff#
.	.	8b	8dd#
=99	=99	=99	=99
2r	2r	8e	4ee
.	.	8g	.
.	.	16b	4r
.	.	16a	.
.	.	16g	.
.	.	16f#	.
==	==	==	==
*-	*-	*-	*-
!!!RWG1: This file contains only pitch and duration data.
!!!RWG2: Transposing instruments are not transposed.
!!!RWG3: Spines may have incompatible meters.
!!!RWG4: Durations of rests and tied notes may be interpreted.
!!!RWG: Key is interpreted using the Humdrum key tool.
!!!GTL: 10 Divertimentos
!!!AFT: stage1
!!!END: 1997/04/15
!!!KEY: 3341111688
!!!EMD: Converted from MuseData to Humdrum Dec 16, 2000, by Andreas Kornstaedt using muse2kern.
!!!EMD: Manual editing by Craig Sapp, Nov 2001
